X: 17
T: Blanche
R: waltz
M: 8/4
L: 1/4
K: G
|: "G"B2A G2A Bc | B2A G2A Bc | "D"d3 A3-A2| de2 f2f ef |
"Em"g2f e2d cB| g2f e2d cB | "C"c2d e2d cB | "D"AB2 c2c BA :|
|: "Am"c2B A2B cd | c2B A2B cd | "Em"e2B G2F GA | B2G FGA B2 |
"Am"c2B A2B cd | c2B A2B cd | "Em"e2g f2e e2 | B3-B3-B2 :|

